X:1
T:Somerley, 77.77
T:Somerley, 77.77
T:Samuel Sebastian Wesley, 1864
T:Public Domain Courtesy of the Cyber Hymnal™
C:Samuel Sebastian Wesley, 1864
Z:Public Domain
Z:Courtesy of the Cyber Hymnal™
%%score ( 1 2 ) ( 3 4 )
L:1/8
Q:1/4=105
M:none
K:F
V:1 treble 
V:2 treble 
V:3 bass 
V:4 bass 
V:1
 [FA]3 [EG] F2 [CF]2 x | (EF) (GA) (G2 F2) | [Cc]2 [CA]2 [Cc]2 [CA]2 | %3
 ([EG][FA]) ([GB][Ac]) ([GB]2 [FA]2) | (fe) (dc) (cB) [CA]2 | [Dd]2 ([Ac][GB]) ([FA]2 [EG]2) | %6
 (cA) F2 (dB) [DG]2 | [CF]2 (EG) (G2 F2) |] %8
V:2
 x4 F2 x3 | C2 C2 C4 | x8 | x8 | F2 F2 G2 x2 | x8 | F2 F2 F2 x2 | x2 C2 C4 |] %8
V:3
 C3 z B, [D,A,]2 [A,,A,]2 | (G,A,) (B,C) ([C,B,]2 [F,A,]2) | A,2 [F,C]2 A,2 [F,C]2 | %3
 [C,C]2 [C,C]2 [F,C]4 | [F,A,]2 (B,A,) [E,G,]2 [F,A,]2 | [B,,B,]2 [G,,D]2 [C,C]4 | %6
 [A,C]2 [A,C]2 [B,D]2 [B,,D]2 | [C,A,]2 (G,B,) (B,2 A,2) |] %8
V:4
 F,2 C,2 x5 | C,2 C,2 x4 | A,2 A,2 x4 | x8 | x2 F,2 x4 | x8 | x8 | x2 C,2 F,4 |] %8

